dist/images/moneyBag.svg

<svg width="50" height="50" viewBox="0 0 50 50" fill="none" xmlns="http://www.w3.org/2000/svg">
<circle cx="25" cy="25" r="25" fill="#F6F3EC"/>
<path d="M28.941 19.2024C27.7078 19.3633 26.3941 19.4437 25 19.4437C23.6327 19.4437 22.2922 19.3633 21.059 19.2024C18.1903 21.6421 15 25.7172 15 29.4169C15 35.2346 19.4772 37.9692 25 37.9692C30.5228 37.9692 35 35.2346 35 29.4169C35 25.6903 31.8097 21.6421 28.941 19.2024ZM25.7507 32.8753V33.9745C25.7507 34.0818 25.6702 34.189 25.5362 34.189H24.4638C24.3566 34.189 24.2493 34.1086 24.2493 33.9745V32.9021C23.1769 32.8217 22.2922 31.9906 22.185 30.9182C22.185 30.811 22.2922 30.7038 22.3995 30.7038H23.4718C23.5791 30.7038 23.6595 30.7574 23.6863 30.8646C23.7399 31.1863 24.0617 31.4276 24.3834 31.4276H25.3217C25.8847 31.4276 26.3941 31.0255 26.4477 30.4893C26.5281 29.8458 26.0188 29.3097 25.4021 29.3097H24.7051C23.3914 29.3097 22.2118 28.3445 22.0777 27.004C21.9437 25.6099 22.9357 24.4303 24.2761 24.2426V23.1702C24.2761 23.063 24.3834 22.9558 24.4906 22.9558H25.563C25.6702 22.9558 25.7775 23.0362 25.7775 23.1702V24.2426C26.8499 24.3231 27.7346 25.1542 27.8418 26.2265C27.8418 26.3338 27.7614 26.441 27.6273 26.441H26.555C26.4745 26.441 26.3673 26.3874 26.3405 26.2802C26.2601 25.9584 25.9651 25.7172 25.6166 25.7172H24.6783C24.1153 25.7172 23.6327 26.1193 23.5523 26.6555C23.4987 27.2989 23.9812 27.8351 24.5979 27.8351H25.4021C26.9035 27.8351 28.0831 29.0952 27.9223 30.6233C27.815 31.8029 26.8767 32.6877 25.7507 32.8753ZM25 17.8619C26.2869 17.8619 27.5201 17.7815 28.6461 17.6475C29.3968 16.0389 30.067 14.4035 30.067 13.6796C30.067 12.6072 28.6997 12.0442 27.8954 13.1971C26.8231 14.6984 26.3405 12.5 25.1072 12.5C23.874 12.5 23.2306 14.5375 22.2654 13.1702C21.3807 11.937 19.9062 12.6877 19.9062 13.6528C19.9062 14.5912 20.5228 16.1729 21.2198 17.6475C22.3727 17.7815 23.6595 17.8619 25 17.8619Z" fill="#F37021"/>
</svg>

<svg width="50" height="50" fill="none" xmlns="http://www.w3.org/2000/svg"><circle cx="25" cy="25" r="25" fill="#F6F3EC"/><path d="M28.941 19.202a30.474 30.474 0 0 1-3.941.242 30.8 30.8 0 0 1-3.941-.242C18.19 21.642 15 25.717 15 29.417c0 5.818 4.477 8.552 10 8.552s10-2.734 10-8.552c0-3.727-3.19-7.775-6.059-10.215Zm-3.19 13.673v1.1c0 .107-.08.214-.215.214h-1.072a.211.211 0 0 1-.215-.215v-1.072c-1.072-.08-1.957-.911-2.064-1.984a.23.23 0 0 1 .215-.214h1.072c.107 0 .188.053.214.16.054.322.376.564.697.564h.939c.563 0 1.072-.402 1.126-.939a1.051 1.051 0 0 0-1.046-1.18h-.697c-1.314 0-2.493-.965-2.627-2.305-.134-1.394.858-2.574 2.198-2.761V23.17a.23.23 0 0 1 .215-.214h1.072c.107 0 .215.08.215.214v1.073c1.072.08 1.957.911 2.064 1.984 0 .107-.08.214-.215.214h-1.072c-.08 0-.188-.054-.215-.16a.748.748 0 0 0-.723-.564h-.939c-.563 0-1.045.402-1.126.939-.053.643.43 1.18 1.046 1.18h.804c1.502 0 2.681 1.26 2.52 2.787-.107 1.18-1.045 2.065-2.171 2.252ZM25 17.862c1.287 0 2.52-.08 3.646-.214.75-1.61 1.421-3.245 1.421-3.968 0-1.073-1.367-1.636-2.172-.483-1.072 1.501-1.555-.697-2.788-.697-1.233 0-1.876 2.037-2.842.67-.884-1.233-2.359-.482-2.359.483 0 .938.617 2.52 1.314 3.995 1.153.134 2.44.214 3.78.214Z" fill="#F37021"/></svg>
